icons/mobile/24/svg/storage-24.svg

<svg width="24" height="24" viewBox="0 0 24 24" fill="none" xmlns="http://www.w3.org/2000/svg">
<path d="M7.25 10.5C7.94036 10.5 8.5 11.0596 8.5 11.75C8.5 12.4404 7.94036 13 7.25 13C6.55964 13 6 12.4404 6 11.75C6 11.0596 6.55964 10.5 7.25 10.5Z" fill="black"/>
<path fill-rule="evenodd" clip-rule="evenodd" d="M12 6.00098C14.1308 6.00098 16.5754 6.12049 19.2627 6.4668C20.8205 6.66758 22 7.9946 22 9.57227V14.4297C22 15.989 20.854 17.3265 19.292 17.5293C17.1258 17.8096 14.6793 18 12 18C9.86922 18 7.42458 17.8805 4.7373 17.5342C3.17954 17.3334 2 16.0064 2 14.4287V9.57129C2 8.01198 3.14602 6.67452 4.70801 6.47168C6.8742 6.19139 9.32072 6.00098 12 6.00098ZM12 7.75098C9.40348 7.75098 7.03329 7.93535 4.93359 8.20703C4.25983 8.29442 3.75 8.87477 3.75 9.57129V14.4287C3.75 15.1191 4.2687 15.7086 4.96094 15.7979C7.56556 16.1335 9.93485 16.25 12 16.25C14.5965 16.25 16.9667 16.0656 19.0664 15.7939C19.7402 15.7066 20.25 15.1262 20.25 14.4297V9.57227C20.25 8.88193 19.7313 8.29235 19.0391 8.20312C16.4344 7.86746 14.0652 7.75098 12 7.75098Z" fill="black"/>
</svg>

<!-- This Source Code Form is subject to the terms of the Mozilla Public
   - License, v. 2.0. If a copy of the MPL was not distributed with this
   - file, You can obtain one at http://mozilla.org/MPL/2.0/. -->
<svg xmlns="http://www.w3.org/2000/svg" width="24" height="24" fill="none" viewBox="0 0 24 24">
    <path fill="#000" d="M7.25 10.5a1.25 1.25 0 1 1 0 2.5 1.25 1.25 0 0 1 0-2.5" />
    <path fill="#000" fill-rule="evenodd" d="M12 6.001c2.13 0 4.575.12 7.263.466A3.14 3.14 0 0 1 22 9.572v4.858a3.12 3.12 0 0 1-2.708 3.1 56.8 56.8 0 0 1-14.555.004A3.14 3.14 0 0 1 2 14.43V9.57a3.12 3.12 0 0 1 2.708-3.1A57 57 0 0 1 12 6.002m0 1.75c-2.597 0-4.967.184-7.066.456A1.37 1.37 0 0 0 3.75 9.571v4.858c0 .69.519 1.28 1.21 1.369a55 55 0 0 0 14.106-.004 1.37 1.37 0 0 0 1.184-1.364V9.572c0-.69-.519-1.28-1.21-1.369A55 55 0 0 0 12 7.751" clip-rule="evenodd" />
</svg>
